X:121
T:White Horse, The
M:2/4
L:1/8
B:Thompson's Compleat Collection of 200 Favourite Country Dances, vol. 2 (London, 1765)
Z:Transcribed and edited by Flynn Titford-Mock, 2007
Z:abc's:AK/Fiddler's Companion
K:A
(Ac)(ce) | e2 dc | d<cB<A | B<GF<E | (Ac)(ce) | e2 dc | d<BA<G | A2 [A,2A2] :|
|: (Ac)(ea) | a2 (gf) | a<gf<e | f<^dc<B | (B^d)(fa) | a2 gf | gb ^df | e2E2 :|
|: (ae)(cA) | d2 (3def | e<cB<A | B>GF<E | (ae)(cA) | d2 (3def | ecdB | A2 [A,2A2] :|

